icons/desktop/12/svg/musical-note-12.svg

<svg width="12" height="12" viewBox="0 0 12 12" fill="none" xmlns="http://www.w3.org/2000/svg">
<g clip-path="url(#clip0_8069_32479)">
<path fill-rule="evenodd" clip-rule="evenodd" d="M8.29198 1.00742C8.82579 1.01969 9.33907 1.04602 9.82908 1.08359L9.82811 1.08457C11.0694 1.17931 11.9989 2.22982 11.999 3.45176V10.1949C11.999 10.7515 11.7132 11.2713 11.2392 11.5689L11.2314 11.5758L11.2305 11.5748L11.2119 11.5875C10.8305 11.8479 10.37 12.0006 9.87401 12.0006C8.43145 12.0006 7.29077 10.7146 7.53123 9.23203C7.72783 8.02598 8.83638 7.2507 9.96776 7.25059H10.749V5.4293C9.80976 5.3225 8.76224 5.24961 7.62303 5.24961C6.48364 5.24961 5.43556 5.32205 4.49608 5.42832L4.49412 10.2525L4.49022 10.2516C4.47113 10.7886 4.18874 11.2811 3.73436 11.568L3.70701 11.5865L3.70604 11.5855C3.3249 11.8463 2.86411 11.9996 2.36912 11.9996C0.926447 11.9996 -0.214094 10.7125 0.0263503 9.23105C0.222951 8.02496 1.33146 7.24967 2.46287 7.24961H3.24608L3.24803 3.45176C3.24813 2.22788 4.17905 1.17952 5.42088 1.08457C6.14897 1.02833 6.92804 0.995525 7.75194 0.999609L8.29198 1.00742ZM9.96776 8.50059C9.39364 8.50069 8.91185 8.86835 8.78514 9.3375L8.76463 9.43223C8.64934 10.1435 9.19067 10.7506 9.87401 10.7506C10.1136 10.7506 10.3337 10.6769 10.5166 10.5494L10.5361 10.5357L10.5644 10.5182L10.5732 10.5123C10.6818 10.445 10.749 10.3248 10.749 10.1949V8.50059H9.96776ZM2.46287 8.49961C1.88871 8.49966 1.40698 8.86734 1.28026 9.33652L1.25975 9.43125C1.14444 10.1417 1.68592 10.7496 2.36912 10.7496C2.60926 10.7496 2.82976 10.675 3.01073 10.5484L3.02049 10.5416L3.03123 10.5348L3.05858 10.5172L3.06541 10.5133C3.14893 10.4611 3.20749 10.3791 3.23143 10.2877L3.24412 10.1939L3.2451 8.49961H2.46287ZM7.74608 2.24961C6.95822 2.2457 6.21328 2.27596 5.51756 2.32969C4.94789 2.37307 4.49813 2.86004 4.49803 3.45176L4.49705 4.16953C5.44238 4.06718 6.48979 3.99961 7.62303 3.99961C8.75679 3.99961 9.80376 4.06857 10.749 4.17148V3.45176C10.7489 2.89674 10.3542 2.43447 9.83787 2.34336L9.73338 2.32969C9.26487 2.29376 8.77415 2.26916 8.26365 2.25742L7.74608 2.24961Z" fill="black"/>
</g>
<defs>
<clipPath id="clip0_8069_32479">
<rect width="12" height="12" fill="white"/>
</clipPath>
</defs>
</svg>

<!-- This Source Code Form is subject to the terms of the Mozilla Public
   - License, v. 2.0. If a copy of the MPL was not distributed with this
   - file, You can obtain one at http://mozilla.org/MPL/2.0/. -->
<svg xmlns="http://www.w3.org/2000/svg" width="12" height="12" fill="context-fill" fill-opacity="context-fill-opacity" viewBox="0 0 12 12">
    <g clip-path="url(#clip0_8069_32479)">
        <path fill-rule="evenodd" d="M8.292 1.007q.802.02 1.537.077c1.24.095 2.17 1.146 2.17 2.368v6.743c0 .556-.286 1.076-.76 1.374l-.008.007v-.001l-.02.013a2.376 2.376 0 0 1-3.68-2.355C7.728 8.025 8.836 7.25 9.968 7.25h.781V5.429c-.94-.107-1.987-.18-3.126-.18-1.14 0-2.187.073-3.127.18l-.002 4.823H4.49a1.62 1.62 0 0 1-.756 1.316l-.027.018h-.001a2.376 2.376 0 0 1-3.68-2.354c.197-1.207 1.305-1.982 2.437-1.982h.783l.002-3.798c0-1.224.931-2.272 2.173-2.367A28 28 0 0 1 7.75 1zm1.676 7.494c-.574 0-1.056.367-1.183.837l-.02.094a1.126 1.126 0 0 0 1.752 1.117l.02-.013.027-.018.01-.006a.37.37 0 0 0 .175-.317V8.5zM2.463 8.5c-.574 0-1.056.367-1.183.837l-.02.094a1.126 1.126 0 0 0 1.75 1.117l.01-.006.011-.007.028-.018.006-.004a.38.38 0 0 0 .166-.225l.013-.094.001-1.694zm5.283-6.25a27 27 0 0 0-2.228.08c-.57.043-1.02.53-1.02 1.122l-.001.718a28.852 28.852 0 0 1 6.252.002v-.72a1.12 1.12 0 0 0-.911-1.109l-.105-.013q-.703-.054-1.47-.073z" clip-rule="evenodd" />
    </g>
</svg>
